!!!OTL: 131. Freylekhs
!!!Genre:	Freylekhs
!!!Mode:	Minor
!!!Listening/dance:	dance
!!!:	*g:dor
!!!One_Mode:	no
**kern
*I"P1
*clefG2
*k[b-e-]
*g:
*M2/4
*>A
8d
=1
4.g
32f#XLLL
32g
32f#
32dJJJ
=2
4.g
32f#XLLL
32g
32f#
32dJJJ
=3
8gL
32f#XLL
32g
32f#
32dJJJ
8gL
32f#LL
32g
32f#
32dJJJ
=4
4g
16r
16dLL
16g
16aJJ
=5
4b-
16aLL
16g
16a
16b-JJ
=6
8gL
8a
8b-J
(8qdd/
8ccJ)
=7
4b-
16aLL
16g
16a
16b-JJ
=8
8g
8r
8gg
8r
=9
4b-
16aLL
16g
16a
16b-JJ
=10
8gL
8a
8b-J
(8qdd/
8ccJ)
=11
4b-
16aLL
16g
16a
16b-JJ
*>A1
=12
4g
8r
*>A2
=13:|!
4g
4r
*>bM
*g:dor
=14||
*>B
*k[b-]
!LO:TX:a:i:t=G-dorian
8gL
16ffL
16eeJJ
16ffLL
16ee
16dd
16cc#XJJ
=15
4dd
16cc#XLL
16b-
16a
16gJJ
=16
8gL
16ffL
16eeJJ
16ffLL
16ee
16dd
16cc#XJJ
=17
4dd
16r
16dLL
16g
16b-JJ
=18
16ddLL
16cc#X
16b-
16aJJ
16gLL
16d
16g
16b-JJ
=19
16ddLL
16cc#X
16b-
16aJJ
16gLL
16d
16g
16b-JJ
=20
16ddLL
16cc#X
16b-
16aJJ
16gLL
16a
16b-
16gJJ
=21
4.a
8r
*>eM
*g:
=22||
*>C
*k[b-e-]
!LO:TX:a:i:t=G-minor
(16aLL
16b-JJ)
4cc
16b-LL
16aJJ
=23
8b-L
(8qdd/
8ccJ)
4b-
=24
16b-LL
16ccJ
8b-J
16ddLL
16ccJ
8b-J
=25
16b-LL
16ccJ
8b-J
24aLL
24b-
24aJ
8gJ
=26
8b-L
(8qcc/
8b-J)
16aLL
16g
16a
16b-JJ
==
*-
